X: 80
T:True Blue. JBa.79
M:4/4
L:1/8
Q:200
S:Joseph Barnes MS,Carlisle,1762.
R:Air
O:England
A:Carlisle
N:Come all you brave  sportsmen I'd have you draw near
N:All to  my song you quickly shall hear
N:of a  wonderful match which appeared to our view
N:that was run by the gallant .......... .true blue
Z:vmp.C.Graebe.
K:E minor
"No time sig- see notes for words"B2 e3 f e2 |\
 g3 f e2 d2 | B3 B B4 |\
B2 d3 A2 G2 | F2 A3 A G2 | F2 G2 E6 | !
E2 E F2 E/4 F2 | G2F G2A2 | B2A2 g4 | f2 f g2 f |
g2 e3 f g2 d2 | B2 G2 E4 |]
